icons/Chromecast.svg

<svg width="24" height="24" viewBox="0 0 24 24" fill="none" xmlns="http://www.w3.org/2000/svg">
<path d="M23 3H1V8H3V5H21V19H14V21H23V3ZM1 18V21H4C4 20.2044 3.68393 19.4413 3.12132 18.8787C2.55871 18.3161 1.79565 18 1 18ZM1 14V16C1.65661 16 2.30679 16.1293 2.91342 16.3806C3.52005 16.6319 4.07124 17.0002 4.53553 17.4645C4.99983 17.9288 5.36812 18.48 5.6194 19.0866C5.87067 19.6932 6 20.3434 6 21H8C8 19.1435 7.2625 17.363 5.94975 16.0503C4.63699 14.7375 2.85652 14 1 14ZM1 10V12C2.1819 12 3.35222 12.2328 4.44415 12.6851C5.53608 13.1374 6.52823 13.8003 7.36396 14.636C8.19969 15.4718 8.86262 16.4639 9.31492 17.5558C9.76721 18.6478 10 19.8181 10 21H12C12 18.0826 10.8411 15.2847 8.77817 13.2218C6.71527 11.1589 3.91738 10 1 10Z" fill="black"/>
</svg>

<svg xmlns="http://www.w3.org/2000/svg" viewBox="0 0 24 24">
  <path d="M23 3H1v5h2V5h18v14h-7v2h9V3zM1 18v3h3a3 3 0 00-3-3zm0-4v2a5 5 0 015 5h2a7 7 0 00-7-7zm0-4v2a9 9 0 019 9h2A11 11 0 001 10z"/>
</svg>
